icons/themes/default/stop.svg

<svg viewBox="0 0 16 16" fill="none" xmlns="http://www.w3.org/2000/svg">
<path id="Union" fill-rule="evenodd" clip-rule="evenodd" d="M6.88326 1.8646C7.05187 1.15045 7.69244 0.609375 8.46003 0.609375C9.22034 0.609375 9.86119 1.14226 10.0278 1.85332C10.2289 1.76394 10.4521 1.71557 10.6882 1.71944C11.5154 1.733 12.2056 2.37083 12.2828 3.18686C12.4756 3.10486 12.6875 3.05938 12.91 3.05938C13.7962 3.05938 14.52 3.78323 14.52 4.66938V10.0094C14.52 11.3222 13.9985 12.5812 13.0702 13.5096C12.1419 14.4379 10.8828 14.9594 9.57002 14.9594H8.02026H8.02002C7.04666 14.9598 6.08863 14.7169 5.23302 14.2528C4.3775 13.7888 3.65153 13.1183 3.12108 12.3023L3.12079 12.3018L1.37137 9.62275L1.36816 9.61783L1.36819 9.61781C0.907182 8.89337 0.952197 7.96535 1.66967 7.39735C2.37171 6.84157 3.38505 6.97809 3.93205 7.66902L3.93237 7.66943L4.62002 8.53988V3.33938C4.62002 2.45378 5.33535 1.70464 6.23822 1.71944C6.46708 1.72319 6.68545 1.77473 6.88326 1.8646ZM7.84003 6.89937C7.84003 6.93389 7.83653 6.96759 7.82987 7.00014C7.78324 7.22798 7.58165 7.39937 7.34003 7.39937C7.30551 7.39937 7.27181 7.39588 7.23926 7.38922C7.01142 7.34259 6.84003 7.141 6.84003 6.89937L6.84002 3.33938C6.84002 3.00708 6.5637 2.72491 6.22183 2.71931C5.9047 2.71411 5.62002 2.98497 5.62002 3.33938V9.97937C5.62002 10.1923 5.4852 10.3818 5.28408 10.4517C5.08296 10.5216 4.85966 10.4564 4.72768 10.2893L3.148 8.28973L3.14785 8.28954C2.93481 8.02065 2.54828 7.97722 2.29038 8.1814C2.04834 8.37301 1.97317 8.70405 2.21042 9.07867L3.95867 11.756L3.95926 11.7569C4.3989 12.4333 5.00066 12.9892 5.70981 13.3738C6.41897 13.7585 7.21303 13.9598 8.01979 13.9594H8.02002H9.57002C10.6176 13.9594 11.6223 13.5432 12.3631 12.8024C13.1039 12.0617 13.52 11.057 13.52 10.0094V4.66938C13.52 4.33552 13.2439 4.05938 12.91 4.05938C12.5789 4.05938 12.2975 4.33382 12.29 4.67409V6.89938C12.29 7.10649 12.1641 7.28418 11.9846 7.36008C11.9248 7.38538 11.8591 7.39937 11.79 7.39938M11.5912 7.35829C11.414 7.28141 11.29 7.10487 11.29 6.89938V3.33938C11.29 3.00708 11.0137 2.72491 10.6718 2.71931C10.3562 2.71413 10.0727 2.98241 10.07 3.33435V6.89937C10.07 7.1065 9.94408 7.28421 9.76459 7.36011C9.70479 7.38539 9.63904 7.39937 9.57003 7.39937L9.57001 7.39938C9.29386 7.39938 9.07001 7.17552 9.07001 6.89938V3.33938L9.07003 3.33146V2.21938C9.07003 1.88552 8.79388 1.60938 8.46003 1.60938C8.12887 1.60938 7.84749 1.88381 7.84003 2.22407V6.89937M11.5912 7.35829C11.6521 7.38472 11.7194 7.39938 11.79 7.39938L11.5912 7.35829Z" fill="currentColor"/>
</svg>

<svg xmlns="http://www.w3.org/2000/svg" fill="none" viewBox="0 0 16 16">
  <path fill="currentColor" fill-rule="evenodd" d="M6.883 1.865A1.628 1.628 0 0 1 8.46.609c.76 0 1.401.533 1.568 1.244.2-.09.424-.137.66-.134a1.631 1.631 0 0 1 1.595 1.468c.193-.082.405-.128.627-.128.886 0 1.61.724 1.61 1.61v5.34a4.95 4.95 0 0 1-4.95 4.95H8.02a5.84 5.84 0 0 1-4.899-2.657l-1.75-2.68-.003-.004c-.46-.725-.416-1.653.302-2.22a1.613 1.613 0 0 1 2.262.271l.688.87v-5.2c0-.885.715-1.634 1.618-1.62.23.004.447.056.645.146Zm.957 5.034a.5.5 0 0 1-1 0V3.34a.63.63 0 0 0-.618-.62.61.61 0 0 0-.602.62v6.64a.5.5 0 0 1-.892.31l-1.58-2a.613.613 0 0 0-.858-.108c-.242.192-.317.523-.08.898l1.749 2.677a4.84 4.84 0 0 0 4.06 2.203H9.57a3.95 3.95 0 0 0 3.95-3.95V4.67a.614.614 0 0 0-.61-.61.63.63 0 0 0-.62.615V6.9a.5.5 0 0 1-.5.5m-.199-.04a.5.5 0 0 1-.301-.46V3.34a.63.63 0 0 0-.618-.62.61.61 0 0 0-.602.615V6.9a.5.5 0 0 1-.5.5.5.5 0 0 1-.5-.5V2.22a.614.614 0 0 0-.61-.61.63.63 0 0 0-.62.615V6.9m3.751.46c.061.026.128.04.199.04l-.199-.04Z" clip-rule="evenodd"/>
</svg>
